OFDR/img/documents/curve.svg

<svg width="66" height="66" viewBox="0 0 66 66" fill="none" xmlns="http://www.w3.org/2000/svg">
<g id="curve">
<path id="Shape" fill-rule="evenodd" clip-rule="evenodd" d="M31.7222 6.70271C32.6649 5.76486 34.338 5.76757 35.2752 6.7L60.2642 31.7043C60.7328 32.176 61 32.8235 61 33.4833C61 34.1431 60.7328 34.7907 60.2668 35.2595L35.2778 60.2638C34.8064 60.7326 34.1593 61 33.4999 61C32.8406 61 32.1933 60.7326 31.7248 60.2663L6.7358 35.2621C6.26722 34.7904 6 34.1429 6 33.4832C6 32.8234 6.26722 32.1758 6.73322 31.7069L31.7222 6.70271ZM8.84676 33.4832L33.5001 58.1515L58.1534 33.4832L33.5001 8.81483L8.84676 33.4832Z" fill="#86ADEF"/>
<path id="Shape_2" fill-rule="evenodd" clip-rule="evenodd" d="M22.1183 20.9689C21.929 20.5355 21.9693 20.035 22.2217 19.6372C22.4755 19.2393 22.9093 19 23.3752 19H37.1251C37.6326 19 38.0986 19.2843 38.3376 19.7396C38.5766 20.1949 38.5498 20.7472 38.2692 21.1765L36.3262 24.1433L38.4893 25.6117C41.9402 27.9565 44 31.8748 44 36.0953V45.6C44 46.3738 43.385 47 42.625 47H37.125C36.365 47 35.75 46.3738 35.75 45.6V36.0955C35.75 34.6887 35.0625 33.383 33.9131 32.601L31.75 31.1326L30.0192 33.7767C29.7412 34.2005 29.2591 34.4411 28.7583 34.3947C28.2588 34.3523 27.8224 34.035 27.6183 33.5688L22.1183 20.9689ZM33.2754 23.7552L34.555 21.8001H25.4916L29.1171 30.1071L30.2249 28.4145C30.4277 28.1056 30.7418 27.8908 31.099 27.8184C31.4588 27.7445 31.8294 27.8197 32.1315 28.0262L35.4387 30.2711C37.3561 31.574 38.5002 33.7505 38.5002 36.0953V44.1999H41.2501V36.0953C41.2501 32.8127 39.6482 29.7652 36.964 27.9414L33.6568 25.6965C33.3534 25.49 33.1425 25.1702 33.0714 24.8065C33.0002 24.4415 33.0726 24.0641 33.2754 23.7552Z" fill="#86ADEF"/>
<path id="Shape_3" fill-rule="evenodd" clip-rule="evenodd" d="M38.6665 2.34713L63.6529 27.3335C65.1447 28.8254 66 30.8904 66 33C66 35.1096 65.1447 37.1746 63.6527 38.6666L38.6665 63.6529C37.1746 65.1447 35.1096 66 33 66C30.8904 66 28.8254 65.1447 27.3334 63.6527L2.34713 38.6665C0.855293 37.1746 0 35.1096 0 33C0 30.8904 0.855293 28.8254 2.34713 27.3335L27.3335 2.34713C28.8256 0.855035 30.9137 -0.000386588 33.0015 0C35.0884 0.00038685 37.175 0.85568 38.6665 2.34713ZM36.7222 61.7085L61.7085 36.7222C62.6888 35.742 63.2499 34.3857 63.2499 33C63.2499 31.6143 62.6887 30.258 61.7085 29.2778L36.7222 4.29155C35.742 3.31134 34.3857 2.75009 33 2.75009C31.6143 2.75009 30.258 3.31134 29.2778 4.29155L4.29142 29.2778C3.31121 30.258 2.74996 31.6143 2.74996 33C2.74996 34.3857 3.31134 35.742 4.29155 36.7222L29.2778 61.7085C31.2382 63.6689 34.7618 63.6689 36.7222 61.7085Z" fill="#86ADEF"/>
</g>
</svg>

<svg width="66" height="66" fill="none" xmlns="http://www.w3.org/2000/svg"><g fill-rule="evenodd" clip-rule="evenodd" fill="#86ADEF"><path d="M31.722 6.703c.943-.938 2.616-.935 3.553-.003l24.99 25.004c.468.472.735 1.12.735 1.78 0 .66-.267 1.307-.733 1.776l-24.99 25.004A2.539 2.539 0 0133.5 61a2.53 2.53 0 01-1.775-.734L6.735 35.262A2.541 2.541 0 016 33.483c0-.66.267-1.307.733-1.776l24.99-25.004zM8.847 33.483L33.5 58.152l24.653-24.669L33.5 8.815 8.847 33.483z"/><path d="M22.118 20.969a1.425 1.425 0 01.104-1.332A1.368 1.368 0 0123.375 19h13.75c.508 0 .974.284 1.213.74a1.423 1.423 0 01-.069 1.437l-1.943 2.966 2.163 1.469C41.94 27.957 44 31.875 44 36.095V45.6c0 .774-.615 1.4-1.375 1.4h-5.5c-.76 0-1.375-.626-1.375-1.4v-9.505a4.217 4.217 0 00-1.837-3.494l-2.163-1.468-1.73 2.644a1.36 1.36 0 01-1.262.618c-.5-.043-.936-.36-1.14-.826l-5.5-12.6zm11.157 2.786l1.28-1.955h-9.063l3.625 8.307 1.108-1.692c.203-.31.517-.524.874-.597.36-.074.73.002 1.033.208l3.307 2.245a7.023 7.023 0 013.061 5.824V44.2h2.75v-8.105c0-3.282-1.602-6.33-4.286-8.154l-3.307-2.244a1.42 1.42 0 01-.381-1.941z"/><path d="M38.666 2.347l24.987 24.986A8.069 8.069 0 0166 33c0 2.11-.855 4.175-2.347 5.667L38.667 63.653A8.069 8.069 0 0133 66a8.069 8.069 0 01-5.667-2.347L2.347 38.667A8.069 8.069 0 010 33c0-2.11.855-4.175 2.347-5.666L27.333 2.347A8.109 8.109 0 0133.002 0c2.086 0 4.173.856 5.664 2.347zm-1.944 59.361l24.986-24.986A5.299 5.299 0 0063.25 33a5.3 5.3 0 00-1.541-3.722L36.722 4.292A5.3 5.3 0 0033 2.75a5.3 5.3 0 00-3.722 1.542L4.29 29.278A5.3 5.3 0 002.75 33a5.3 5.3 0 001.542 3.722l24.986 24.986c1.96 1.96 5.484 1.96 7.444 0z"/></g></svg>
